!!!COM: Music21
!!!OTL: Dálle unha volta
!!!OMV: pezas_pasodobles_dalle-unha-volta_dalle-unha-volta-partitura.musicxml
**kern
*part1
*staff1
*I"Gaita
*I'Bag
*clefG^2
*k[]
*M2/4
*MM130
=1
!LO:TX:a:t=[quarter]=130
8r
8gg
8aaL
8ggJ
=||
8cccL
8eeeJ
8dddL
8cccJ
=
8bbL
8dddJ
8cccL
8bbJ
=
8aaL
16bbL
16aaJJ
[4gg
.
.
.
=
8ggL]
16eeL
16ffJJ
16ggLL
16aa
16bb
16cccJJ
=
8.dddL
16cccJk
8bbL
8cccJ
=
8dddL
8cccJ
8bbL
8cccJ
=
8aaL
16bbL
16aaJJ
[4gg
.
.
!!linebreak:original
=
8ggL]
8ggJ
8aaL
8ggJ
=
8cccL
[8dddJ
8dddL]
8bbJ
=
8aaL
[8cccJ
8cccL]
8aaJ
=
16ggLL
16ff
16ee
16ffJJ
[4gg
.
=
8ggL]
16eeL
16ffJJ
8ggL
16ffL
16eeJJ
=
8aaL
16ffL
16ggJJ
8aaL
16ggL
16ffJJ
=
8bbL
16cccL
16bbJJ
16ggLL
16aa
16bb
16dddJJ
=
[2ccc
!!linebreak:original
=
8cccL]
8ggJ
8aaL
8ggJ
=||
8cccL
8eeeJ
8dddL
8cccJ
=
8bbL
8dddJ
8cccL
8bbJ
=
8aaL
16bbL
16aaJJ
[4gg
.
.
.
=
8ggL]
16eeL
16ffJJ
16ggLL
16aa
16bb
16cccJJ
=
8.dddL
16cccJk
8bbL
8cccJ
=
8dddL
8cccJ
8bbL
8cccJ
=
8aaL
16bbL
16aaJJ
[4gg
.
.
!!linebreak:original
=
8ggL]
8ggJ
8aaL
8ggJ
=
8cccL
[8dddJ
8dddL]
8bbJ
=
8aaL
[8cccJ
8cccL]
8aaJ
=
16ggLL
16ff
16ee
16ffJJ
[4gg
.
=
8ggL]
16eeL
16ffJJ
8ggL
16ffL
16eeJJ
=
8aaL
16ffL
16ggJJ
8aaL
16ggL
16ffJJ
=
8bbL
16cccL
16bbJJ
16ggLL
16aa
16bb
16dddJJ
!!linebreak:original
=
[2ccc
=
8cccL]
16eeL
16ffJJ
16ggLL
16aa
16bb
16cccJJ
=||
8dddL
[8bbJ
8bbL]
8cccJ
=
8aaL
[8ffJ
8ffL]
8aaJ
=
16ggLL
16ff
16ee
16ffJJ
[4gg
.
.
.
=
8ggL]
16eeL
16ffJJ
16ggLL
16aa
16gg
16eeJJ
=
16ffLL
16gg
16aa
16bbJJ
16cccLL
16ddd
16ccc
16bbJJ
!!linebreak:original
=
8aaL
8ddJ
8eeL
8ffJ
!!pagebreak:original
=
8aaL
16bbL
16aaJJ
[4gg
=
8ggL]
16eeL
16ffJJ
16ggLL
16aa
16bb
16ggJJ
=
8aa-XL
[8ffJ
8ffL]
[8aa-J
=
8aa-L]
[8cccJ
8cccL]
8aa-XJ
=
8ggL
16eeL
16ffJJ
8ggL
16bbL
16aaJJ
=
8ggL
16ccL
16ddJJ
16eeLL
16ff
16gg
16aaJJ
=
8ggL
16ccL
16ddJJ
16eeLL
16ff
16gg
16aaJJ
=
8ggL
8bbJ
8bbL
8ggJ
!!linebreak:original
=
[2ccc
.
.
.
.
.
=
8cccL]
16eeL
16ffJJ
16ggLL
16aa
16bb
16cccJJ
=||
8dddL
[8bbJ
8bbL]
8cccJ
=
8aaL
[8ffJ
8ffL]
8aaJ
=
16ggLL
16ff
16ee
16ffJJ
[4gg
.
.
.
=
8ggL]
16eeL
16ffJJ
16ggLL
16aa
16gg
16eeJJ
=
16ffLL
16gg
16aa
16bbJJ
16cccLL
16ddd
16ccc
16bbJJ
!!linebreak:original
=
8aaL
8ddJ
8eeL
8ffJ
!!linebreak:original
=
8aaL
16bbL
16aaJJ
[4gg
=
8ggL]
16eeL
16ffJJ
16ggLL
16aa
16bb
16ggJJ
=
8aa-XL
[8ffJ
8ffL]
[8aa-J
=
8aa-L]
[8cccJ
8cccL]
8aa-XJ
=
8ggL
16eeL
16ffJJ
8ggL
16bbL
16aaJJ
=
8ggL
16ccL
16ddJJ
16eeLL
16ff
16gg
16aaJJ
=
8ggL
16ccL
16ddJJ
16eeLL
16ff
16gg
16aaJJ
=
8ggL
8bbJ
8bbL
8ggJ
!!linebreak:original
=||
[2ccc
=
8cccL]
8ggJ
8aaL
8ggJ
=||
[2ccc
=
8ccc]
8r
4r
==
*-
!!!system-decoration: s1,s2
